client/public/assets/icons/standard/service_territory.svg

<svg id="icons" xmlns="http://www.w3.org/2000/svg" width="100" height="100" viewBox="0 0 100 100"><title>service_territory</title><path d="M56.63,62.11a7.39,7.39,0,0,1-7.42-7.22,7.27,7.27,0,0,1,7.42-7.22,7.22,7.22,0,1,1,0,14.43Z" fill="#fff" fill-rule="evenodd"/><path d="M71.83,20H28.3A8.11,8.11,0,0,0,20,27.81V72.19A8.08,8.08,0,0,0,28.16,80H52.57C47.5,75.48,39,66.22,39,56.46a17.32,17.32,0,0,1,34.65,0c0,9.82-8.55,19-13.61,23.54H71.83A8.08,8.08,0,0,0,80,72.19V27.81C80.14,23.56,76.42,20,71.83,20ZM47.61,33.35a2.85,2.85,0,0,1-2.76,2.75H30.78A2.85,2.85,0,0,1,28,33.35V30.6a2.85,2.85,0,0,1,2.76-2.75H44.85a2.85,2.85,0,0,1,2.76,2.75Z" fill="#fff" fill-rule="evenodd"/></svg>

<?xml version="1.0"?><svg xmlns="http://www.w3.org/2000/svg" width="100" height="100" viewBox="0 0 100 100"><title></title><path d="m56.6 62.1a7.4 7.4 0 0 1-7.4-7.2 7.3 7.3 0 0 1 7.4-7.2 7.2 7.2 0 1 1 0 14.4z m15.2-42.1h-43.5a8.1 8.1 0 0 0-8.3 7.8v44.4a8.1 8.1 0 0 0 8.2 7.8h24.4c-5.1-4.5-13.6-13.8-13.6-23.5a17.3 17.3 0 0 1 34.7 0c0 9.8-8.6 19-13.7 23.5h11.8a8.1 8.1 0 0 0 8.2-7.8v-44.4c0.1-4.2-3.6-7.8-8.2-7.8z m-24.2 13.4a2.9 2.9 0 0 1-2.7 2.7h-14.1a2.9 2.9 0 0 1-2.8-2.7v-2.8a2.9 2.9 0 0 1 2.8-2.7h14a2.9 2.9 0 0 1 2.8 2.7z" fill="#fff" fill-rule="evenodd"></path></svg>
